%
(Header)
(Generated by gcodetools from Inkscape.)
(Using default header. To add your own header create file "header" in the output dir.)
M3
(Header end.)
G21 (All units in mm)

(Pass at depth 0.0)
(Start cutting path id: path4722)
(Change tool to Cone cutter)

G00 Z 0.0000
G00 X 560.0387 Y 279.7558

G01 Z 0.0000 F 500.0000(Penetrate)
G01 X 557.2801 Y 285.2730 Z 20.0000 F 1000.0000
G01 X 549.0043 Y 288.0317 Z 20.0000
G01 X 543.4870 Y 288.0317 Z 20.0000
G01 X 535.2111 Y 285.2730 Z 20.0000
G01 X 529.6939 Y 276.9972 Z 20.0000
G01 X 526.9353 Y 263.2041 Z 20.0000
G01 X 526.9353 Y 249.4110 Z 20.0000
G01 X 529.6939 Y 238.3765 Z 20.0000
G01 X 535.2111 Y 232.8592 Z 20.0000
G01 X 543.4870 Y 230.1006 Z 20.0000
G01 X 546.2456 Y 230.1006 Z 20.0000
G01 X 554.5215 Y 232.8592 Z 20.0000
G01 X 560.0387 Y 238.3765 Z 20.0000
G01 X 562.7974 Y 246.6523 Z 20.0000
G01 X 562.7974 Y 249.4110 Z 20.0000
G01 X 560.0387 Y 257.6868 Z 20.0000
G01 X 554.5215 Y 263.2041 Z 20.0000
G01 X 546.2456 Y 265.9627 Z 20.0000
G01 X 543.4870 Y 265.9627 Z 20.0000
G01 X 535.2111 Y 263.2041 Z 20.0000
G01 X 529.6939 Y 257.6868 Z 20.0000
G01 X 526.9353 Y 249.4110 Z 20.0000
G00 Z 00.0000

(End cutting path id: path4722)

(Start cutting path id: path4720)
(Change tool to Cone cutter)

G00 Z 0.0000
G00 X 471.7628 Y 274.2386

G01 Z 20.0000 F 500.0000(Penetrate)
G01 X 471.7628 Y 276.9972 Z 20.0000 F 1000.0000
G01 X 474.5215 Y 282.5144 Z 20.0000
G01 X 477.2801 Y 285.2730 Z 20.0000
G01 X 482.7973 Y 288.0317 Z 20.0000
G01 X 493.8318 Y 288.0317 Z 20.0000
G01 X 499.3491 Y 285.2730 Z 20.0000
G01 X 502.1077 Y 282.5144 Z 20.0000
G01 X 504.8663 Y 276.9972 Z 20.0000
G01 X 504.8663 Y 271.4799 Z 20.0000
G01 X 502.1077 Y 265.9627 Z 20.0000
G01 X 496.5904 Y 257.6868 Z 20.0000
G01 X 469.0042 Y 230.1006 Z 20.0000
G01 X 507.6249 Y 230.1006 Z 20.0000
G00 Z 0.0000

(End cutting path id: path4720)

(Start cutting path id: path4718)
(Change tool to Cone cutter)

G00 Z 0.0000
G00 X 419.3490 Y 288.0317

G01 Z 20.0000 F 500.0000(Penetrate)
G01 X 449.6939 Y 288.0317 Z 20.0000 F 1000.0000
G01 X 433.1421 Y 265.9627 Z 20.0000
G01 X 441.4180 Y 265.9627 Z 20.0000
G01 X 446.9352 Y 263.2041 Z 20.0000
G01 X 449.6939 Y 260.4454 Z 20.0000
G01 X 452.4525 Y 252.1696 Z 20.0000
G01 X 452.4525 Y 246.6523 Z 20.0000
G01 X 449.6939 Y 238.3765 Z 20.0000
G01 X 444.1766 Y 232.8592 Z 20.0000
G01 X 435.9007 Y 230.1006 Z 20.0000
G01 X 427.6249 Y 230.1006 Z 20.0000
G01 X 419.3490 Y 232.8592 Z 20.0000
G01 X 416.5904 Y 235.6178 Z 20.0000
G01 X 413.8318 Y 241.1351 Z 20.0000
G00 Z 0.0000

(End cutting path id: path4718)

(Start cutting path id: path4716)
(Change tool to Cone cutter)

G00 Z 0.0000
G00 X 369.6938 Y 288.0317

G01 Z 20.0000 F 500.0000(Penetrate)
G01 X 364.1766 Y 285.2730 Z 20.0000 F 1000.0000
G01 X 358.6593 Y 279.7558 Z 20.0000
G01 X 355.9007 Y 274.2386 Z 20.0000
G01 X 353.1421 Y 265.9627 Z 20.0000
G01 X 353.1421 Y 252.1696 Z 20.0000
G01 X 355.9007 Y 243.8937 Z 20.0000
G01 X 358.6593 Y 238.3765 Z 20.0000
G01 X 364.1766 Y 232.8592 Z 20.0000
G01 X 369.6938 Y 230.1006 Z 20.0000
G01 X 380.7283 Y 230.1006 Z 20.0000
G01 X 386.2455 Y 232.8592 Z 20.0000
G01 X 391.7628 Y 238.3765 Z 20.0000
G01 X 394.5214 Y 243.8937 Z 20.0000
G01 X 397.2800 Y 252.1696 Z 20.0000
G01 X 397.2800 Y 265.9627 Z 20.0000
G01 X 394.5214 Y 274.2386 Z 20.0000
G01 X 391.7628 Y 279.7558 Z 20.0000
G01 X 386.2455 Y 285.2730 Z 20.0000
G01 X 380.7283 Y 288.0317 Z 20.0000
G01 X 369.6938 Y 288.0317 Z 20.0000
G00 Z 0.0000

(End cutting path id: path4716)

(Start cutting path id: path4714)
(Change tool to Cone cutter)

G00 Z 0.0000
G00 X 336.5903 Y 274.2386

G01 Z 0.0000 F 500.0000(Penetrate)
G01 X 333.8317 Y 279.7558 Z 20.0000 F 1000.0000
G01 X 328.3145 Y 285.2730 Z 20.0000
G01 X 322.7972 Y 288.0317 Z 20.0000
G01 X 311.7627 Y 288.0317 Z 20.0000
G01 X 306.2455 Y 285.2730 Z 20.0000
G01 X 300.7282 Y 279.7558 Z 20.0000
G01 X 297.9696 Y 274.2386 Z 20.0000
G01 X 295.2110 Y 265.9627 Z 20.0000
G01 X 295.2110 Y 252.1696 Z 20.0000
G01 X 297.9696 Y 243.8937 Z 20.0000
G01 X 300.7282 Y 238.3765 Z 20.0000
G01 X 306.2455 Y 232.8592 Z 20.0000
G01 X 311.7627 Y 230.1006 Z 20.0000
G01 X 322.7972 Y 230.1006 Z 20.0000
G01 X 328.3145 Y 232.8592 Z 20.0000
G01 X 333.8317 Y 238.3765 Z 20.0000
G01 X 336.5903 Y 243.8937 Z 20.0000
G00 Z 0.0000

(End cutting path id: path4714)



(Footer)
M5
G00 X0.0000 Y0.0000
M2
(Using default footer. To add your own footer create file "footer" in the output dir.)
(end)
%