%
(Header)
(Generated by gcodetools from Inkscape.)
(Using default header. To add your own header create file "header" in the output dir.)
M3
(Header end.)
G21 (All units in mm)

(Pass at depth 0.0)
(Start cutting path id: rect3338)
(Change tool to Cone cutter)

G00 Z 0.0000
G00 X 409.3856 Y 371.7541

G01 Z 20.0000 F 500.0000(Penetrate)
G01 X 621.4907 Y 371.7541 Z 20.0000 F 1000.0000
G01 X 621.4907 Y 159.6490 Z 20.0000
G01 X 409.3856 Y 159.6490 Z 20.0000
G01 X 409.3856 Y 371.7541 Z 20.0000
G00 Z 0.0000

(End cutting path id: rect3338)

(Start cutting path id: path3336)
(Change tool to Cone cutter)

G00 Z 00.0000
G00 X 368.3331 Y 265.7016

G01 Z 20.0000 F 500.0000(Penetrate)
G02 X 359.8263 Y 222.9350 Z 20.0000 I -111.7543 J 0.0000 F 1000.0000
G02 X 335.6010 Y 186.6793 Z 20.0000 I -103.2475 J 42.7665
G02 X 299.3453 Y 162.4541 Z 20.0000 I -79.0222 J 79.0222
G02 X 256.5787 Y 153.9473 Z 20.0000 I -42.7665 J 103.2475
G02 X 213.8122 Y 162.4541 Z 20.0000 I 0.0000 J 111.7543
G02 X 177.5565 Y 186.6793 Z 20.0000 I 42.7665 J 103.2475
G02 X 153.3312 Y 222.9350 Z 20.0000 I 79.0222 J 79.0222
G02 X 144.8244 Y 265.7016 Z 20.0000 I 103.2475 J 42.7665
G02 X 153.3312 Y 308.4681 Z 20.0000 I 111.7543 J -0.0000
G02 X 177.5565 Y 344.7238 Z 20.0000 I 103.2475 J -42.7665
G02 X 213.8122 Y 368.9491 Z 20.0000 I 79.0222 J -79.0222
G02 X 256.5787 Y 377.4559 Z 20.0000 I 42.7665 J -103.2475
G02 X 299.3453 Y 368.9491 Z 20.0000 I 0.0000 J -111.7543
G02 X 335.6010 Y 344.7238 Z 20.0000 I -42.7665 J -103.2475
G02 X 359.8263 Y 308.4681 Z 20.0000 I -79.0222 J -79.0222
G02 X 368.3331 Y 265.7016 Z 20.0000 I -103.2475 J -42.7665
G01 X 368.3331 Y 265.7016 Z 0.0000
G01 X0.0 Y0.0 Z0.00

(End cutting path id: path3336)



(Footer)
M5
G00 X0.0000 Y0.0000
M2
(Using default footer. To add your own footer create file "footer" in the output dir.)
(end)
%